assets/bottom-menu/quests-tab-treasure-chest.svg

<?xml version="1.0" encoding="UTF-8" standalone="no"?>
<svg
   width="31.304321"
   height="29.566872"
   viewBox="0 0 31.304321 29.566872"
   fill="none"
   version="1.1"
   id="svg6"
   sodipodi:docname="quests-tab-treasure-chest.svg"
   xmlns:inkscape="http://www.inkscape.org/namespaces/inkscape"
   xmlns:sodipodi="http://sodipodi.sourceforge.net/DTD/sodipodi-0.dtd"
   xmlns="http://www.w3.org/2000/svg"
   xmlns:svg="http://www.w3.org/2000/svg">
  <sodipodi:namedview
     id="namedview6"
     pagecolor="#ffffff"
     bordercolor="#000000"
     borderopacity="0.25"
     inkscape:showpageshadow="2"
     inkscape:pageopacity="0.0"
     inkscape:pagecheckerboard="0"
     inkscape:deskcolor="#d1d1d1">
    <inkscape:page
       x="0"
       y="0"
       width="31.304321"
       height="29.566872"
       id="page2"
       margin="0"
       bleed="0" />
  </sodipodi:namedview>
  <g
     clip-path="url(#clip0_47223_91508)"
     id="g6"
     transform="translate(-4.8466802,-5.2175297)">
    <path
       d="M 30.064,7.8269 H 10.9336 V 30.4356 H 30.064 Z"
       fill="#aa572a"
       id="path1" />
    <path
       fill-rule="evenodd"
       clip-rule="evenodd"
       d="m 4.84668,6.52188 c 0,-0.72037 0.58398,-1.30435 1.30435,-1.30435 h 3.47826 c 0.72041,0 1.30431,0.58398 1.30431,1.30435 V 17.3914 H 30.0641 V 6.52188 c 0,-0.72037 0.5839,-1.30435 1.3043,-1.30435 h 3.4783 c 0.7203,0 1.3043,0.58398 1.3043,1.30435 V 33.4784 c 0,0.7204 -0.584,1.3043 -1.3043,1.3043 H 6.15103 c -0.72037,0 -1.30435,-0.5839 -1.30435,-1.3043 z M 10.9336,30.4349 H 30.0641 V 22.6088 H 10.9336 Z"
       fill="#ffc800"
       id="path2" />
    <path
       d="m 36.151,26.0271 -9.4142,8.7573 H 6.72656 L 11.4005,30.4366 H 30.064 V 22.6105 H 19.8135 l 5.6087,-5.2174 h 4.6418 v -4.318 l 6.087,-5.66226 z"
       fill="#fbe56d"
       id="path3" />
    <path
       d="M 10.9336,17.3238 4.84668,22.9861 V 12.8564 L 10.9336,7.19409 Z"
       fill="#fbe56d"
       id="path4" />
    <path
       d="M 17.2343,13.7175 H 24.07 c 1.0786,0 1.953,0.9043 1.953,2.0197 v 8.0785 c 0,1.1154 -0.8744,2.0196 -1.953,2.0196 h -6.8357 c -1.0786,0 -1.9531,-0.9042 -1.9531,-2.0196 v -8.0785 c 0,-1.1154 0.8745,-2.0197 1.9531,-2.0197 z"
       fill="#ffc800"
       id="path5" />
    <path
       d="m 23.034,18.2618 c 0,-1.3942 -1.093,-2.5245 -2.4413,-2.5245 -1.3483,0 -2.4413,1.1303 -2.4413,2.5245 0,0.8236 0.3813,1.555 0.9713,2.0159 l -0.6187,2.2525 c -0.0247,0.0898 -0.0372,0.1826 -0.0372,0.2759 0,0.5577 0.4372,1.0098 0.9766,1.0098 h 2.2975 c 0.0902,0 0.18,-0.0129 0.2668,-0.0384 0.5188,-0.1524 0.8199,-0.7108 0.6726,-1.2473 l -0.6186,-2.2518 c 0.5906,-0.4608 0.9723,-1.1926 0.9723,-2.0166 z"
       fill="#cd7900"
       id="path6" />
  </g>
  <defs
     id="defs6">
    <clipPath
       id="clip0_47223_91508">
      <rect
         width="40"
         height="40"
         fill="#ffffff"
         transform="translate(0.5)"
         id="rect6"
         x="0"
         y="0" />
    </clipPath>
  </defs>
</svg>

<svg width="41" height="40" viewBox="0 0 41 40" fill="none" xmlns="http://www.w3.org/2000/svg"><g clip-path="url(#clip0_47223_91508)"><path d="M30.064 7.8269H10.9336V30.4356H30.064V7.8269Z" fill="#AA572A"/><path fill-rule="evenodd" clip-rule="evenodd" d="M4.84668 6.52188C4.84668 5.80151 5.43066 5.21753 6.15103 5.21753H9.62929C10.3497 5.21753 10.9336 5.80151 10.9336 6.52188V17.3914H30.0641V6.52188C30.0641 5.80151 30.648 5.21753 31.3684 5.21753H34.8467C35.567 5.21753 36.151 5.80151 36.151 6.52188V33.4784C36.151 34.1988 35.567 34.7827 34.8467 34.7827H6.15103C5.43066 34.7827 4.84668 34.1988 4.84668 33.4784V6.52188ZM10.9336 30.4349H30.0641V22.6088H10.9336V30.4349Z" fill="#FFC800"/><path d="M36.151 26.0271L26.7368 34.7844H6.72656L11.4005 30.4366H30.064V22.6105H19.8135L25.4222 17.3931H30.064V13.0751L36.151 7.41284V26.0271Z" fill="#FBE56D"/><path d="M10.9336 17.3238L4.84668 22.9861V12.8564L10.9336 7.19409V17.3238Z" fill="#FBE56D"/><path d="M17.2343 13.7175H24.07C25.1486 13.7175 26.023 14.6218 26.023 15.7372V23.8157C26.023 24.9311 25.1486 25.8353 24.07 25.8353H17.2343C16.1557 25.8353 15.2812 24.9311 15.2812 23.8157V15.7372C15.2812 14.6218 16.1557 13.7175 17.2343 13.7175Z" fill="#FFC800"/><path d="M23.034 18.2618C23.034 16.8676 21.941 15.7373 20.5927 15.7373C19.2444 15.7373 18.1514 16.8676 18.1514 18.2618C18.1514 19.0854 18.5327 19.8168 19.1227 20.2777L18.504 22.5302C18.4793 22.62 18.4668 22.7128 18.4668 22.8061C18.4668 23.3638 18.904 23.8159 19.4434 23.8159H21.7409C21.8311 23.8159 21.9209 23.803 22.0077 23.7775C22.5265 23.6251 22.8276 23.0667 22.6803 22.5302L22.0617 20.2784C22.6523 19.8176 23.034 19.0858 23.034 18.2618Z" fill="#CD7900"/></g><defs><clipPath id="clip0_47223_91508"><rect width="40" height="40" fill="white" transform="translate(0.5)"/></clipPath></defs></svg>
